images/media-partners/odessa-buriness-club.svg

<svg width="138" height="56" viewBox="0 0 138 56" fill="none" xmlns="http://www.w3.org/2000/svg">
<mask id="mask0_2395_1745" style="mask-type:luminance" maskUnits="userSpaceOnUse" x="0" y="0" width="138" height="56">
<path d="M138 0H0V55.1858H138V0Z" fill="white"/>
</mask>
<g mask="url(#mask0_2395_1745)">
<path d="M8.97764 14.6744C15.2275 14.6744 17.9346 12.0487 17.9346 7.32614C17.9346 2.60358 15.2224 0.0185547 8.97764 0.0185547C2.73288 0.0185547 0.015625 2.60358 0.015625 7.32614C0.015625 12.0487 2.70576 14.6744 8.97764 14.6744ZM8.97764 3.09177C12.8052 3.09177 14.2697 4.43429 14.2697 7.32953C14.2697 10.2248 12.7797 11.5995 8.97764 11.5995C5.17552 11.5995 3.68044 10.257 3.68044 7.32614C3.68044 4.39531 5.14501 3.09177 8.97764 3.09177Z" fill="#161616"/>
<path d="M37.0907 7.33811C37.0907 2.34772 33.7514 0 29.9628 0H19.3125V14.6762H29.9628C33.7514 14.6762 37.0907 12.3268 37.0907 7.33811ZM23.0875 11.5098V3.16645H28.5373C31.3884 3.16645 33.3174 3.7733 33.3174 7.33811C33.3174 10.9029 31.3884 11.5098 28.5373 11.5098H23.0875Z" fill="#161616"/>
<path d="M53.9472 11.6776H42.2069V8.70097H53.9472V5.97524H42.2069V2.99864H53.9472V0H38.4336V14.6762H53.9472V11.6776Z" fill="#161616"/>
<path d="M64.8412 11.7625C60.2 11.7625 58.9795 11.0692 58.9795 9.55885H55.3164C55.3164 13.6695 58.7965 14.6662 64.6395 14.6662C69.9095 14.6662 73.5116 13.8932 73.5116 10.0894C73.5116 6.48733 70.0316 6.19068 64.4157 5.87709C60.2644 5.63299 59.4084 5.42958 59.4084 4.33115C59.4084 3.27171 60.2644 2.92591 63.8648 2.92591C67.6703 2.92591 69.2383 3.3124 69.2383 4.88037H72.9048C72.9048 1.35625 69.6434 0.0205078 64.2716 0.0205078C58.9388 0.0205078 55.7436 1.01723 55.7436 4.15147C55.7436 7.34505 58.2066 8.32312 64.414 8.6079C69.0332 8.83165 69.8383 9.03507 69.8383 10.2149C69.8536 11.3336 68.6874 11.7625 64.8412 11.7625Z" fill="#161616"/>
<path d="M77.3857 14.6762L78.957 11.5521H87.7411L89.3141 14.6762H93.4858L85.8968 0H80.803L73.2344 14.6762H77.3857ZM83.3609 2.78845L86.3375 8.74165H80.3691L83.3609 2.78845Z" fill="#161616"/>
<path d="M12.8726 20.3032H0V34.9303H13.3744C16.6968 34.9303 18.1376 33.1335 18.1376 30.6671C18.1376 28.972 17.3223 27.7634 16.0696 26.9887C16.7902 26.2161 17.1995 25.2041 17.2188 24.1477C17.2188 21.9949 16.195 20.3032 12.8726 20.3032ZM3.76143 23.0154H11.5131C12.5302 23.0154 13.4574 23.0154 13.4574 24.5206C13.4574 26.0259 12.537 26.0462 11.5352 26.0462H3.76143V23.0154ZM12.4539 32.0215H3.76143V28.933H12.4539C13.4574 28.933 14.3762 28.933 14.3762 30.4789C14.3762 32.0249 13.4574 32.0249 12.4539 32.0249V32.0215Z" fill="#161616"/>
<path d="M37.3421 20.3213H33.6366V27.5051C33.6366 29.502 33.0806 31.8293 28.2852 31.8293C23.4897 31.8293 22.9321 29.5223 22.9321 27.5051V20.3213H19.2266V27.5051C19.2266 32.5294 21.9387 34.9365 28.2852 34.9365C34.6317 34.9365 37.3421 32.5074 37.3421 27.5051V20.3213Z" fill="#161616"/>
<path d="M48.2188 32.0399C43.5861 32.0399 42.3673 31.3483 42.3673 29.8362H38.7109C38.7109 33.9401 42.1842 34.9351 48.0154 34.9351C53.2702 34.9351 56.874 34.1638 56.874 30.3583C56.874 26.7613 53.399 26.4596 47.7916 26.1528C43.6471 25.9087 42.7944 25.7053 42.7944 24.6085C42.7944 23.5525 43.642 23.2067 47.2441 23.2067C51.0428 23.2067 52.6074 23.5932 52.6074 25.1577H56.2637C56.2637 21.6421 53.0125 20.3013 47.6492 20.3013C42.3266 20.3013 39.1364 21.2963 39.1364 24.4255C39.1364 27.6156 41.596 28.5903 47.7916 28.8751C52.404 29.0989 53.2159 29.3023 53.2159 30.4804C53.2159 31.611 52.0633 32.0399 48.2188 32.0399Z" fill="#161616"/>
<path d="M61.9724 20.3213H58.2109V34.9483H61.9724V20.3213Z" fill="#161616"/>
<path d="M63.3125 20.3213V34.9483H67.0739V23.9776L77.0411 34.9483H82.1604V20.3213H78.3989V31.3123L68.4097 20.3213H63.3125Z" fill="#161616"/>
<path d="M99.0057 31.9599H87.3044V28.9934H99.0057V26.2762H87.3044V23.3098H99.0057V20.3213H83.543V34.9483H99.0057V31.9599Z" fill="#161616"/>
<path d="M109.393 26.1412C105.252 25.8988 104.404 25.6953 104.404 24.6003C104.404 23.5476 105.252 23.2018 108.844 23.2018C112.634 23.2018 114.195 23.5866 114.195 25.1478H117.843C117.843 21.6407 114.6 20.3032 109.249 20.3032C103.938 20.3032 100.755 21.2966 100.755 24.4189C100.755 27.6006 103.207 28.5736 109.391 28.8584C113.992 29.0805 114.804 29.2839 114.804 30.4586C114.804 31.574 113.648 31.9994 109.817 31.9994C105.194 31.9994 103.979 31.3112 103.979 29.8111H100.336C100.336 33.9064 103.802 34.8964 109.62 34.8964C114.875 34.8964 118.458 34.1268 118.458 30.3365C118.453 26.7497 114.987 26.4395 109.393 26.1412Z" fill="#161616"/>
<path d="M128.91 26.1586C124.765 25.9162 123.911 25.7128 123.911 24.6144C123.911 23.5583 124.759 23.2125 128.361 23.2125C132.159 23.2125 133.724 23.599 133.724 25.1636H137.382C137.382 21.648 134.131 20.3071 128.767 20.3071C123.443 20.3071 120.255 21.3039 120.255 24.433C120.255 27.6215 122.713 28.5979 128.91 28.8827C133.522 29.1047 134.334 29.3081 134.334 30.4862C134.334 31.605 133.176 32.0305 129.335 32.0305C124.703 32.0305 123.484 31.3406 123.484 29.837H119.836C119.836 33.9408 123.309 34.9359 129.142 34.9359C134.397 34.9359 138.001 34.1646 138.001 30.3591C137.992 26.7689 134.517 26.4637 128.91 26.1586Z" fill="#161616"/>
<path d="M8.92375 40.6362C14.5617 40.6362 17.3993 42.7788 17.7553 46.8606H14.0633C13.7243 44.5773 11.9614 43.6874 8.93054 43.6874C5.23182 43.6874 3.67572 45.0011 3.67572 47.8913C3.67572 50.7814 5.25216 52.129 8.93054 52.129C11.941 52.129 13.7209 51.2188 14.0633 48.9083H17.7621C17.3993 53.0122 14.5684 55.1802 8.93054 55.1802C2.70612 55.187 0.03125 52.6003 0.03125 47.8913C0.03125 43.1823 2.70612 40.6362 8.92375 40.6362Z" fill="#161616"/>
<path d="M34.0541 52.0402V55.1762H19.1016V40.644H22.841V52.0402H34.0541Z" fill="#161616"/>
<path d="M72.8754 50.947C72.8754 53.4015 71.4413 55.1848 68.1291 55.1848H54.8242V40.6323H67.6409C70.9463 40.6323 71.9651 42.3173 71.9651 44.4599C71.9461 45.511 71.5393 46.5181 70.8226 47.2873C72.0651 48.0569 72.8754 49.2638 72.8754 50.947ZM58.567 46.3516H66.3035C67.3019 46.3516 68.2172 46.3516 68.2172 44.826C68.2172 43.3004 67.3019 43.3292 66.2831 43.3292H58.567V46.3516ZM69.1326 50.7589C69.1326 49.2197 68.2172 49.2197 67.2188 49.2197H58.5738V52.298H67.2188C68.2172 52.2997 69.1326 52.2997 69.1326 50.7606V50.7589Z" fill="#161616"/>
<path d="M53.4571 40.6362H49.7686V47.7879C49.7686 49.7762 49.2143 52.0934 44.4392 52.0934C39.6641 52.0934 39.1115 49.7966 39.1115 47.7879V40.6362H35.4297V47.7879C35.4297 52.7901 38.1419 55.187 44.4476 55.187C50.7534 55.187 53.4656 52.7681 53.4656 47.7879L53.4571 40.6362Z" fill="#161616"/>
</g>
</svg>

<svg width="138" height="56" fill="none" xmlns="http://www.w3.org/2000/svg"><mask id="mask0_2395_1745" style="mask-type:luminance" maskUnits="userSpaceOnUse" x="0" y="0" width="138" height="56"><path d="M138 0H0v55.186h138V0z" fill="#fff"/></mask><g mask="url(#mask0_2395_1745)" fill="#161616"><path d="M8.978 14.674c6.25 0 8.957-2.625 8.957-7.348 0-4.722-2.713-7.307-8.957-7.307C2.733.019.016 2.604.016 7.326c0 4.723 2.69 7.348 8.962 7.348zm0-11.582c3.827 0 5.292 1.342 5.292 4.238 0 2.895-1.49 4.27-5.292 4.27-3.802 0-5.298-1.343-5.298-4.274 0-2.93 1.465-4.234 5.298-4.234zM37.09 7.338C37.09 2.348 33.752 0 29.964 0h-10.65v14.676h10.65c3.788 0 7.128-2.35 7.128-7.338zM23.088 11.51V3.166h5.45c2.851 0 4.78.607 4.78 4.172 0 3.565-1.929 4.172-4.78 4.172h-5.45zm30.859.168h-11.74V8.7h11.74V5.975h-11.74V3h11.74V0H38.434v14.676h15.513v-2.998zm10.894.084c-4.641 0-5.861-.693-5.861-2.203h-3.664c0 4.11 3.48 5.107 9.323 5.107 5.27 0 8.873-.773 8.873-4.577 0-3.602-3.48-3.898-9.096-4.212-4.152-.244-5.008-.447-5.008-1.546 0-1.06.856-1.405 4.457-1.405 3.805 0 5.373.386 5.373 1.954h3.667c0-3.524-3.262-4.86-8.633-4.86-5.333 0-8.528.997-8.528 4.131 0 3.194 2.463 4.172 8.67 4.457 4.62.224 5.424.427 5.424 1.607.016 1.119-1.15 1.547-4.997 1.547zm12.545 2.914l1.571-3.124h8.784l1.573 3.124h4.172L85.896 0h-5.093l-7.569 14.676h4.152zM83.36 2.788l2.977 5.954h-5.969l2.992-5.954zM12.873 20.303H0V34.93h13.374c3.323 0 4.764-1.797 4.764-4.263 0-1.695-.816-2.904-2.068-3.678a4.28 4.28 0 001.149-2.841c0-2.153-1.024-3.845-4.346-3.845zM3.76 23.015h7.752c1.017 0 1.944 0 1.944 1.506 0 1.505-.92 1.525-1.922 1.525H3.761v-3.03zm8.693 9.007H3.76v-3.089h8.693c1.003 0 1.922 0 1.922 1.546s-.919 1.546-1.922 1.546v-.003zm24.889-11.701h-3.705v7.184c0 1.997-.556 4.324-5.352 4.324-4.795 0-5.353-2.307-5.353-4.324v-7.184h-3.705v7.184c0 5.024 2.712 7.432 9.058 7.432 6.347 0 9.057-2.43 9.057-7.432v-7.184zM48.219 32.04c-4.633 0-5.852-.692-5.852-2.204h-3.656c0 4.104 3.473 5.1 9.304 5.1 5.255 0 8.859-.772 8.859-4.578 0-3.597-3.475-3.898-9.082-4.205-4.145-.244-4.998-.448-4.998-1.544 0-1.057.848-1.402 4.45-1.402 3.799 0 5.363.386 5.363 1.95h3.657c0-3.515-3.252-4.856-8.615-4.856-5.322 0-8.513.995-8.513 4.125 0 3.19 2.46 4.164 8.656 4.45 4.612.223 5.424.426 5.424 1.604 0 1.131-1.153 1.56-4.997 1.56zm13.753-11.719h-3.761v14.627h3.761V20.321zm1.341 0v14.627h3.76v-10.97l9.968 10.97h5.12V20.321h-3.762v10.991l-9.99-10.99h-5.097zM99.006 31.96H87.304v-2.967h11.702v-2.717H87.304V23.31h11.702v-2.99H83.543v14.627h15.463V31.96zm10.387-5.819c-4.141-.242-4.989-.446-4.989-1.54 0-1.053.848-1.4 4.44-1.4 3.79 0 5.351.386 5.351 1.947h3.648c0-3.507-3.243-4.845-8.594-4.845-5.311 0-8.494.994-8.494 4.116 0 3.182 2.452 4.155 8.636 4.44 4.601.221 5.413.425 5.413 1.6 0 1.115-1.156 1.54-4.987 1.54-4.623 0-5.838-.688-5.838-2.188h-3.643c0 4.095 3.466 5.085 9.284 5.085 5.255 0 8.838-.77 8.838-4.56-.005-3.586-3.471-3.896-9.065-4.195zm19.517.018c-4.145-.243-4.999-.446-4.999-1.545 0-1.056.848-1.402 4.45-1.402 3.798 0 5.363.387 5.363 1.952h3.658c0-3.516-3.251-4.857-8.615-4.857-5.324 0-8.512.997-8.512 4.126 0 3.189 2.458 4.165 8.655 4.45 4.612.222 5.424.425 5.424 1.603 0 1.119-1.158 1.545-4.999 1.545-4.632 0-5.851-.69-5.851-2.194h-3.648c0 4.104 3.473 5.099 9.306 5.099 5.255 0 8.859-.771 8.859-4.577-.009-3.59-3.484-3.895-9.091-4.2zM8.924 40.636c5.638 0 8.475 2.143 8.831 6.225h-3.692c-.339-2.284-2.102-3.174-5.132-3.174-3.7 0-5.255 1.314-5.255 4.204 0 2.89 1.576 4.238 5.255 4.238 3.01 0 4.79-.91 5.132-3.22h3.7c-.364 4.103-3.195 6.271-8.832 6.271-6.225.007-8.9-2.58-8.9-7.289s2.675-7.255 8.893-7.255zm25.13 11.404v3.136H19.102V40.644h3.739V52.04h11.213zm38.821-1.093c0 2.454-1.434 4.238-4.746 4.238H54.824V40.632h12.817c3.305 0 4.324 1.685 4.324 3.828a4.26 4.26 0 01-1.142 2.827c1.242.77 2.052 1.977 2.052 3.66zm-14.308-4.595h7.736c.999 0 1.914 0 1.914-1.526s-.915-1.497-1.934-1.497h-7.716v3.023zm10.566 4.407c0-1.54-.916-1.54-1.914-1.54h-8.645v3.079h8.645c.998.002 1.914.002 1.914-1.537v-.002zM53.457 40.636H49.77v7.152c0 1.988-.555 4.305-5.33 4.305s-5.328-2.296-5.328-4.305v-7.152H35.43v7.152c0 5.002 2.712 7.399 9.018 7.399 6.305 0 9.018-2.419 9.018-7.4l-.009-7.15z"/></g></svg>
